albertroad.htmlalbertroad.htmlalbertroad.htmlalbertroad.htmlalbertroad.htmlalbertroad.htmlalbertroad.htmlalbertroad.htmlalbertroad.htmlFrom <I>Brian Finnegan: When the Party's Over</I>
albertroad.htmlalbertroad.html<PRE>T:In the Promised Land
T:In the Promised Land
M:C|
L:1/8
R:reel
D:Brian Finnegan: When the Party's Over
Z:Devin McCabe
K:DDor
cd d/2d/2d cA A/2A/2A|dAcA GAce|f2ed cA A/2A/2A|1dAcA G3c:|2dAcA G3e|
!:fdad fdad|ecgc ecge|fdad fdad|1edcA G3e:|2edcA G3c||

%  ABC2Win Version 2.1 9/24/2000
albertroad.htmlalbertroad.htmlalbertroad.htmlalbertroad.htmlalbertroad.htmlalbertroad.htmlalbertroad.html